polaris-icons/icons/new-icons/AnalyticsBarHorizontalMinor.svg

<svg width="20" height="20" viewBox="0 0 20 20" fill="none" xmlns="http://www.w3.org/2000/svg">
<path fill-rule="evenodd" clip-rule="evenodd" d="M11 5.452L11 5.5001L11 5.5482C11.0003 5.73011 11.0006 5.91942 10.9664 6.09151C10.8283 6.78571 10.2856 7.32838 9.59141 7.46647C9.41932 7.5007 9.23002 7.50042 9.0481 7.50014L9 7.5001H5.5L5.4519 7.50014C5.26998 7.50042 5.08068 7.5007 4.90859 7.46647C4.21438 7.32838 3.67171 6.78571 3.53363 6.0915C3.4994 5.91942 3.49968 5.73011 3.49995 5.5482L3.5 5.5001L3.49995 5.452C3.49968 5.27008 3.4994 5.08077 3.53363 4.90869C3.67171 4.21448 4.21438 3.67181 4.90859 3.53372C5.08067 3.49949 5.26998 3.49978 5.4519 3.50005L9.0481 3.50005C9.23002 3.49978 9.41932 3.49949 9.59141 3.53372C10.2856 3.67181 10.8283 4.21448 10.9664 4.90869C11.0006 5.08077 11.0003 5.27008 11 5.452ZM9.4948 5.19938C9.47459 5.10179 9.39831 5.02551 9.30071 5.00529C9.29709 5.00485 9.28218 5.00324 9.24778 5.00206C9.19343 5.0002 9.12125 5.0001 9 5.0001L5.5 5.0001C5.37875 5.0001 5.30657 5.0002 5.25222 5.00206C5.21782 5.00324 5.20291 5.00485 5.19929 5.00529C5.10169 5.02551 5.02541 5.10179 5.0052 5.19938C5.00475 5.203 5.00314 5.21791 5.00196 5.25231C5.0001 5.30666 5 5.37885 5 5.5001C5 5.62135 5.0001 5.69353 5.00196 5.74788C5.00314 5.78229 5.00475 5.7972 5.0052 5.80081C5.02541 5.89841 5.10169 5.97469 5.19928 5.9949C5.2029 5.99534 5.21781 5.99696 5.25222 5.99813C5.30657 5.99999 5.37875 6.0001 5.5 6.0001L9 6.0001C9.12125 6.0001 9.19343 5.99999 9.24778 5.99813C9.28218 5.99696 9.29709 5.99534 9.30071 5.9949C9.39831 5.97469 9.47459 5.89841 9.4948 5.80081C9.49525 5.79719 9.49686 5.78228 9.49804 5.74788C9.4999 5.69353 9.5 5.62135 9.5 5.5001C9.5 5.37885 9.4999 5.30667 9.49804 5.25231C9.49686 5.21792 9.49525 5.20301 9.4948 5.19938Z" fill="#4A4A4A"/>
<path fill-rule="evenodd" clip-rule="evenodd" d="M16.5 9.952L16.5 10.0001L16.5 10.0482C16.5003 10.2301 16.5006 10.4194 16.4664 10.5915C16.3283 11.2857 15.7856 11.8284 15.0914 11.9665C14.9193 12.0007 14.73 12.0004 14.5481 12.0001L14.5 12.0001H5.5L5.4519 12.0001C5.26998 12.0004 5.08067 12.0007 4.90859 11.9665C4.21438 11.8284 3.67171 11.2857 3.53362 10.5915C3.4994 10.4194 3.49968 10.2301 3.49995 10.0482L3.5 10.0001L3.49995 9.952C3.49968 9.77008 3.4994 9.58077 3.53362 9.40869C3.67171 8.71448 4.21438 8.17181 4.90859 8.03372C5.08067 7.99949 5.26998 7.99978 5.4519 8.00005L5.5 8.0001L14.5 8.0001L14.5481 8.00005C14.73 7.99978 14.9193 7.99949 15.0914 8.03372C15.7856 8.17181 16.3283 8.71448 16.4664 9.40869C16.5006 9.58077 16.5003 9.77008 16.5 9.952ZM14.9948 9.69938C14.9746 9.60179 14.8983 9.52551 14.8007 9.50529C14.7971 9.50485 14.7822 9.50324 14.7478 9.50206C14.6934 9.5002 14.6212 9.5001 14.5 9.5001L5.5 9.5001C5.37875 9.5001 5.30657 9.5002 5.25222 9.50206C5.2178 9.50324 5.20289 9.50485 5.19928 9.50529C5.10169 9.52551 5.02541 9.60179 5.0052 9.69938C5.00475 9.703 5.00314 9.71792 5.00196 9.75231C5.0001 9.80666 5 9.87885 5 10.0001C5 10.1213 5.0001 10.1935 5.00196 10.2479C5.00314 10.2823 5.00475 10.2972 5.0052 10.3008C5.02541 10.3984 5.10169 10.4747 5.19928 10.4949C5.2029 10.4953 5.21781 10.497 5.25222 10.4981C5.30657 10.5 5.37875 10.5001 5.5 10.5001L14.5 10.5001C14.6212 10.5001 14.6934 10.5 14.7478 10.4981C14.7822 10.497 14.7971 10.4953 14.8007 10.4949C14.8983 10.4747 14.9746 10.3984 14.9948 10.3008C14.9952 10.2972 14.9969 10.2823 14.998 10.2479C14.9999 10.1935 15 10.1213 15 10.0001C15 9.87885 14.9999 9.80666 14.998 9.75231C14.9969 9.71792 14.9952 9.703 14.9948 9.69938Z" fill="#4A4A4A"/>
<path fill-rule="evenodd" clip-rule="evenodd" d="M14 14.5001L14 14.452C14.0003 14.2701 14.0006 14.0808 13.9664 13.9087C13.8283 13.2145 13.2856 12.6718 12.5914 12.5337C12.4193 12.4995 12.23 12.4998 12.0481 12.5L5.5 12.5001L5.4519 12.5C5.26998 12.4998 5.08067 12.4995 4.90859 12.5337C4.21438 12.6718 3.67171 13.2145 3.53362 13.9087C3.4994 14.0808 3.49968 14.2701 3.49995 14.452L3.5 14.5001L3.49995 14.5482C3.49968 14.7301 3.4994 14.9194 3.53362 15.0915C3.67171 15.7857 4.21438 16.3284 4.90859 16.4665C5.08067 16.5007 5.26998 16.5004 5.4519 16.5001H12.0481C12.23 16.5004 12.4193 16.5007 12.5914 16.4665C13.2856 16.3284 13.8283 15.7857 13.9664 15.0915C14.0006 14.9194 14.0003 14.7301 14 14.5482L14 14.5001ZM12.3007 14.0053C12.3983 14.0255 12.4746 14.1018 12.4948 14.1994C12.4952 14.203 12.4969 14.2179 12.498 14.2523C12.4999 14.3067 12.5 14.3788 12.5 14.5001C12.5 14.6213 12.4999 14.6935 12.498 14.7479C12.4969 14.7823 12.4952 14.7972 12.4948 14.8008C12.4746 14.8984 12.3983 14.9747 12.3007 14.9949C12.2971 14.9953 12.2822 14.997 12.2478 14.9981C12.1934 15 12.1212 15.0001 12 15.0001H5.5C5.37875 15.0001 5.30657 15 5.25222 14.9981C5.2178 14.997 5.20289 14.9953 5.19928 14.9949C5.10169 14.9747 5.02541 14.8984 5.0052 14.8008C5.00475 14.7972 5.00314 14.7823 5.00196 14.7479C5.0001 14.6935 5 14.6213 5 14.5001C5 14.3788 5.0001 14.3067 5.00196 14.2523C5.00314 14.2179 5.00475 14.203 5.0052 14.1994C5.02541 14.1018 5.10169 14.0255 5.19929 14.0053C5.2029 14.0049 5.21781 14.0032 5.25222 14.0021C5.30657 14.0002 5.37875 14.0001 5.5 14.0001H12C12.1212 14.0001 12.1934 14.0002 12.2478 14.0021C12.2822 14.0032 12.2971 14.0048 12.3007 14.0053L12.2988 14.0049C12.3006 14.0053 12.3007 14.0053 12.3007 14.0053C12.3006 14.0053 12.3012 14.0054 12.3007 14.0053Z" fill="#4A4A4A"/>
</svg>

<svg viewBox="0 0 20 20" xmlns="http://www.w3.org/2000/svg"><path fill-rule="evenodd" d="M11 5.452v.096c0 .182 0 .371-.034.544a1.75 1.75 0 0 1-1.375 1.374 2.824 2.824 0 0 1-.543.034h-3.596c-.182 0-.371 0-.543-.034a1.75 1.75 0 0 1-1.375-1.375 2.825 2.825 0 0 1-.034-.543v-.096c0-.182 0-.371.034-.543a1.75 1.75 0 0 1 1.375-1.375c.172-.035.361-.034.543-.034h3.596c.182 0 .371 0 .543.034a1.75 1.75 0 0 1 1.375 1.375c.035.172.034.361.034.543Zm-1.505-.253a.25.25 0 0 0-.194-.194 8.216 8.216 0 0 0-.3-.005h-3.501a8.216 8.216 0 0 0-.3.005.25.25 0 0 0-.195.194 8.217 8.217 0 0 0-.005.3 8.216 8.216 0 0 0 .005.302.25.25 0 0 0 .194.194l.053.003c.055.002.127.002.248.002h3.5a8.207 8.207 0 0 0 .3-.005.25.25 0 0 0 .195-.194 8.216 8.216 0 0 0 .005-.3 8.217 8.217 0 0 0-.005-.302Z" fill="#5C5F62"/><path fill-rule="evenodd" d="M16.5 9.952v.096c0 .182 0 .371-.034.543a1.75 1.75 0 0 1-1.375 1.376 2.825 2.825 0 0 1-.543.033h-9.096c-.182 0-.371 0-.543-.034a1.75 1.75 0 0 1-1.375-1.374 2.826 2.826 0 0 1-.034-.544v-.096c0-.182 0-.371.034-.543a1.75 1.75 0 0 1 1.375-1.375c.172-.035.361-.034.543-.034h9.096c.182 0 .371 0 .543.034a1.75 1.75 0 0 1 1.375 1.375c.035.172.034.361.034.543Zm-1.505-.253a.25.25 0 0 0-.194-.194 8.221 8.221 0 0 0-.3-.005h-9.001a8.216 8.216 0 0 0-.3.005.25.25 0 0 0-.195.194 8.217 8.217 0 0 0-.005.3 8.221 8.221 0 0 0 .005.302.25.25 0 0 0 .194.194l.053.003c.055.002.127.002.248.002h9c.121 0 .193 0 .248-.002l.053-.003a.25.25 0 0 0 .194-.194l.003-.053a8.05 8.05 0 0 0 .002-.248c0-.121 0-.193-.002-.248l-.003-.053Z" fill="#5C5F62"/><path fill-rule="evenodd" d="M14 14.5v-.048c0-.182 0-.371-.034-.543a1.75 1.75 0 0 0-1.375-1.375c-.172-.035-.361-.034-.543-.034h-6.596c-.182 0-.371 0-.543.034a1.75 1.75 0 0 0-1.375 1.375 2.826 2.826 0 0 0-.034.543v.096c0 .182 0 .371.034.543a1.75 1.75 0 0 0 1.375 1.376c.172.034.361.033.543.033h6.596c.182 0 .371 0 .543-.034a1.75 1.75 0 0 0 1.375-1.375c.035-.172.034-.36.034-.543v-.048Zm-1.7-.495a.25.25 0 0 1 .195.194l.003.053c.002.055.002.127.002.248s0 .194-.002.248l-.003.053a.25.25 0 0 1-.194.194l-.053.003a8.05 8.05 0 0 1-.248.002h-6.5c-.121 0-.193 0-.248-.002l-.053-.003a.25.25 0 0 1-.194-.194 8.221 8.221 0 0 1-.005-.3 8.217 8.217 0 0 1 .005-.302.25.25 0 0 1 .194-.194l.053-.003c.055-.002.127-.002.248-.002h6.5a8.05 8.05 0 0 1 .3.005h-.001.002Z" fill="#5C5F62"/></svg>
